X:636
%%etbk:tnset id:351,pos:3,rep:3x,ant:
%%etbk:wsite https://thesession.org/tunes/93
%%etbk:pldat 2016-08-06T15:44,2016-07-23T16:12,2016-07-22T16:37,2015-07-17T16:18,2015-06-03T18:57,2015-04-06T11:10
T: The Cock And The Hen
Z: Piano Box Version by Martin Fleischmann
H: Created 2015-03-27 /  Last Modified 2016-07-23
R: slip jig
M: 9/8
L: 1/8
K: F#min
|:"f#m"!2!~F3 FEF !5!c2 !4!A | !2!~F3 FEF !4!AFE | !2!~F3 FEF !5!c!3!cd | !5!ecA !2!B!1!A!2!F !4!AFE :|
|:"A"!5!ecA AB!3!c "D"!4!d2 !5!f | "A"!5!e!3!cA ABc BAF | !5!ecA ABc "D"!4!d2 B | "E"!3!cBA !2!BAF !4!AFE :|


